src/people-body/body-parts/1F443.svg

<svg id="emoji" viewBox="0 0 72 72" xmlns="http://www.w3.org/2000/svg">
  <g id="grid">
    <path fill="#b3b3b3" d="M68,4V68H4V4H68m4-4H0V72H72V0Z"/>
    <path fill="none" stroke="#00a5ff" stroke-miterlimit="10" stroke-width="0.1" d="M12.923,10.9583H59.0769A1.9231,1.9231,0,0,1,61,12.8814V59.0352a1.9231,1.9231,0,0,1-1.9231,1.9231H12.9231A1.9231,1.9231,0,0,1,11,59.0352V12.8813A1.923,1.923,0,0,1,12.923,10.9583Z"/>
    <rect x="16" y="4" rx="2.2537" width="40" height="64" fill="none" stroke="#00a5ff" stroke-miterlimit="10" stroke-width="0.1"/>
    <rect x="16" y="4" rx="2.2537" width="40" height="64" transform="translate(72) rotate(90)" fill="none" stroke="#00a5ff" stroke-miterlimit="10" stroke-width="0.1"/>
    <circle cx="36" cy="36" r="29" fill="none" stroke="#00a5ff" stroke-miterlimit="10" stroke-width="0.1"/>
  </g>
  <g id="color"/>
  <g id="hair"/>
  <g id="skin">
    <path fill="#fcea2b" stroke="none" d="M46.0495,41.9032c-1.0781-3.8065-4.3718-14.867-3.1714-30.0282h-13.391 c1.2004,15.1611-2.0933,26.2217-3.1714,30.0282"/>
    <path fill="#fcea2b" stroke="none" d="M50.25,36.7078c7.5833,4.6667,2.8334,12.7522-1.6875,14.0214C44.6425,51.8296,46,60.0682,36,60.0417 c-10,0.0265-8.6425-8.212-12.5625-9.3125c-4.5209-1.2691-9.2818-9.3547-1.6984-14.0214"/>
  </g>
  <g id="skin-shadow"/>
  <g id="line">
    <path fill="none" stroke="#000000" stroke-linecap="round" stroke-linejoin="round" stroke-miterlimit="10" stroke-width="2" d="M29.4871,12.875c1.2004,14.6562-2.0933,25.3484-3.1714,29.0282"/>
    <path fill="none" stroke="#000000" stroke-linecap="round" stroke-linejoin="round" stroke-miterlimit="10" stroke-width="2" d="M42.8781,12.875c-1.2004,14.6562,2.0933,25.3484,3.1714,29.0282"/>
    <path fill="none" stroke="#000000" stroke-linecap="round" stroke-linejoin="round" stroke-miterlimit="10" stroke-width="2" d="M50.25,37.7083c7.5833,4.6667,2.8334,11.7517-1.6875,13.0208C44.6425,51.8296,46,60.0682,36,60.0417 c-10,0.0265-8.6425-8.212-12.5625-9.3125C18.9166,49.46,14.1667,42.375,21.75,37.7083"/>
  </g>
</svg>

<svg viewBox="0 0 72 72" xmlns="http://www.w3.org/2000/svg"><path fill="#b3b3b3" d="M68 4v64H4V4h64m4-4H0v72h72V0z"/><path fill="none" stroke="#00a5ff" stroke-miterlimit="10" stroke-width=".1" d="M12.923 10.958h46.154A1.923 1.923 0 0161 12.881v46.154a1.923 1.923 0 01-1.923 1.923H12.923A1.923 1.923 0 0111 59.035V12.881a1.923 1.923 0 011.923-1.923z"/><rect x="16" y="4" rx="2.254" width="40" height="64" fill="none" stroke="#00a5ff" stroke-miterlimit="10" stroke-width=".1"/><rect x="16" y="4" rx="2.254" width="40" height="64" transform="rotate(90 36 36)" fill="none" stroke="#00a5ff" stroke-miterlimit="10" stroke-width=".1"/><circle cx="36" cy="36" r="29" fill="none" stroke="#00a5ff" stroke-miterlimit="10" stroke-width=".1"/><g stroke-linecap="round" stroke-miterlimit="10" stroke-width="6" stroke="#fff" fill="none" stroke-linejoin="round"><path d="M29.487 12.875c1.2 14.656-2.093 25.348-3.171 29.028m16.562-29.028c-1.2 14.656 2.093 25.348 3.172 29.028"/><path d="M50.25 37.708c7.583 4.667 2.833 11.752-1.688 13.021C44.642 51.83 46 60.07 36 60.042c-10 .026-8.643-8.212-12.563-9.313-4.52-1.269-9.27-8.354-1.687-13.02"/></g><g fill="#fcea2b"><path d="M46.05 41.903c-1.079-3.806-4.372-14.867-3.172-30.028h-13.39c1.2 15.161-2.094 26.222-3.172 30.028"/><path d="M50.25 36.708c7.583 4.667 2.833 12.752-1.688 14.021C44.642 51.83 46 60.07 36 60.042c-10 .026-8.643-8.212-12.563-9.313-4.52-1.269-9.281-9.354-1.698-14.021"/></g><g fill="none" stroke="#000" stroke-linecap="round" stroke-linejoin="round" stroke-miterlimit="10" stroke-width="2"><path d="M29.487 12.875c1.2 14.656-2.093 25.348-3.171 29.028m16.562-29.028c-1.2 14.656 2.093 25.348 3.172 29.028"/><path d="M50.25 37.708c7.583 4.667 2.833 11.752-1.688 13.021C44.642 51.83 46 60.07 36 60.042c-10 .026-8.643-8.212-12.563-9.313-4.52-1.269-9.27-8.354-1.687-13.02"/></g></svg>
